src/assets/icons/sheet.svg

<svg width="800" height="800" fill="#831843" viewBox="0 0 24 24" xmlns="http://www.w3.org/2000/svg">
<path d="m4 7c0-1.6568 1.3432-3 3-3h10c1.6569 0 3 1.3432 3 3v10c0 1.6569-1.3431 3-3 3h-10c-1.6568 0-3-1.3431-3-3v-10zm3-1c-0.55228 0-1 0.44772-1 1v4h5v-5h-4zm6 0v5h5v-4c0-0.55228-0.4477-1-1-1h-4zm5 7h-5v5h4c0.5523 0 1-0.4477 1-1v-4zm-7 5v-5h-5v4c0 0.5523 0.44772 1 1 1h4z" clip-rule="evenodd" fill="#831843" fill-rule="evenodd"/>
</svg>

<svg width="800" height="800" viewBox="0 0 24 24" fill="#831843" xmlns="http://www.w3.org/2000/svg">
  <path fill-rule="evenodd" clip-rule="evenodd" d="M4 7C4 5.34315 5.34315 4 7 4H12H17C18.6569 4 20 5.34315 20 7V12V17C20 18.6569 18.6569 20 17 20H12H7C5.34315 20 4 18.6569 4 17V12V7ZM7 6C6.44772 6 6 6.44772 6 7V11H11V6H7ZM13 6V11H18V7C18 6.44772 17.5523 6 17 6H13ZM18 13H13V18H17C17.5523 18 18 17.5523 18 17V13ZM11 18V13H6V17C6 17.5523 6.44772 18 7 18H11Z" fill="#831843"/>
</svg>
